img/logo-github-16.svg

<svg fill="none" height="32" viewBox="0 0 32 32" width="32" xmlns="http://www.w3.org/2000/svg" xmlns:xlink="http://www.w3.org/1999/xlink"><clipPath id="a"><path d="m0 0h32v32h-32z"/></clipPath><g clip-path="url(#a)"><path clip-rule="evenodd" d="m15.9511 0c-8.80737 0-15.9511 7.14373-15.9511 15.9511 0 7.0458 4.59939 13.0153 10.8624 15.1682.7829.0978 1.0764-.3915 1.0764-.7829s0-1.37 0-2.7401c-4.40363.9786-5.38223-2.1529-5.38223-2.1529-.68501-1.8593-1.76146-2.3486-1.76146-2.3486-1.46789-.9786.09786-.9786.09786-.9786 1.56575.0979 2.44648 1.6636 2.44648 1.6636 1.46789 2.4465 3.71865 1.7615 4.59935 1.37.0979-1.0764.5872-1.7614.9786-2.1529-3.5229-.3914-7.24156-1.7614-7.24156-7.9266 0-1.7614.58716-3.1315 1.66361-4.3058-.09786-.2936-.68502-1.95716.19572-4.11007 0 0 1.37003-.39143 4.40363 1.66361 1.2722-.39143 2.6422-.48929 4.0123-.48929 1.37 0 2.74.19571 4.0122.48929 3.0336-2.05504 4.4037-1.66361 4.4037-1.66361.8807 2.15291.2935 3.81647.1957 4.20797.9786 1.0764 1.6636 2.5443 1.6636 4.3058 0 6.1651-3.7187 7.4373-7.2416 7.8287.5872.4893 1.0765 1.4679 1.0765 2.9358v4.4037c0 .3914.2935.8807 1.0764.7829 6.3609-2.1529 10.8624-8.1224 10.8624-15.1682-.0979-8.80737-7.2416-15.9511-16.0489-15.9511z" fill="#fff" fill-rule="evenodd"/></g></svg>

<svg width="32" height="32" viewBox="0 0 32 32" fill="none" xmlns="http://www.w3.org/2000/svg">
<g clip-path="url(#clip0_3470_10700)">
<path fill-rule="evenodd" clip-rule="evenodd" d="M15.9511 0C7.14373 0 0 7.14373 0 15.9511C0 22.9969 4.59939 28.9664 10.8624 31.1193C11.6453 31.2171 11.9388 30.7278 11.9388 30.3364C11.9388 29.945 11.9388 28.9664 11.9388 27.5963C7.53517 28.5749 6.55657 25.4434 6.55657 25.4434C5.87156 23.5841 4.79511 23.0948 4.79511 23.0948C3.32722 22.1162 4.89297 22.1162 4.89297 22.1162C6.45872 22.2141 7.33945 23.7798 7.33945 23.7798C8.80734 26.2263 11.0581 25.5413 11.9388 25.1498C12.0367 24.0734 12.526 23.3884 12.9174 22.9969C9.3945 22.6055 5.67584 21.2355 5.67584 15.0703C5.67584 13.3089 6.263 11.9388 7.33945 10.7645C7.24159 10.4709 6.65443 8.80734 7.53517 6.65443C7.53517 6.65443 8.9052 6.263 11.9388 8.31804C13.211 7.92661 14.581 7.82875 15.9511 7.82875C17.3211 7.82875 18.6911 8.02446 19.9633 8.31804C22.9969 6.263 24.367 6.65443 24.367 6.65443C25.2477 8.80734 24.6605 10.4709 24.5627 10.8624C25.5413 11.9388 26.2263 13.4067 26.2263 15.1682C26.2263 21.3333 22.5076 22.6055 18.9847 22.9969C19.5719 23.4862 20.0612 24.4648 20.0612 25.9327C20.0612 28.0856 20.0612 29.7492 20.0612 30.3364C20.0612 30.7278 20.3547 31.2171 21.1376 31.1193C27.4985 28.9664 32 22.9969 32 15.9511C31.9021 7.14373 24.7584 0 15.9511 0Z" fill="white"/>
</g>
<defs>
<clipPath id="clip0_3470_10700">
<rect width="32" height="32" fill="white"/>
</clipPath>
</defs>
</svg>
